resources/haticons/SVG/linkedin.svg

<!-- Generated by IcoMoon.io -->
<svg version="1.1" xmlns="http://www.w3.org/2000/svg" width="24" height="24" viewBox="0 0 24 24">
<title>linkedin</title>
<path d="M21.75 0h-19.5c-1.237 0-2.25 1.013-2.25 2.25v19.5c0 1.237 1.013 2.25 2.25 2.25h19.5c1.237 0 2.25-1.013 2.25-2.25v-19.5c0-1.237-1.013-2.25-2.25-2.25zM9 19.5h-3v-10.5h3v10.5zM7.5 7.5c-0.83 0-1.5-0.67-1.5-1.5s0.67-1.5 1.5-1.5c0.83 0 1.5 0.67 1.5 1.5s-0.67 1.5-1.5 1.5zM19.5 19.5h-3v-6c0-0.83-0.67-1.5-1.5-1.5s-1.5 0.67-1.5 1.5v6h-3v-10.5h3v1.861c0.619-0.848 1.566-1.861 2.625-1.861 1.866 0 3.375 1.678 3.375 3.75v6.75z"></path>
</svg>

<svg xmlns="http://www.w3.org/2000/svg" width="24" height="24"><path d="M21.75 0H2.25A2.257 2.257 0 0 0 0 2.25v19.5A2.257 2.257 0 0 0 2.25 24h19.5A2.257 2.257 0 0 0 24 21.75V2.25A2.257 2.257 0 0 0 21.75 0zM9 19.5H6V9h3v10.5zm-1.5-12C6.67 7.5 6 6.83 6 6s.67-1.5 1.5-1.5S9 5.17 9 6s-.67 1.5-1.5 1.5zm12 12h-3v-6c0-.83-.67-1.5-1.5-1.5s-1.5.67-1.5 1.5v6h-3V9h3v1.861C14.119 10.013 15.066 9 16.125 9c1.866 0 3.375 1.678 3.375 3.75v6.75z"/></svg>
